_site/images/features-page/icon-file-check.svg

<svg fill="none" height="30" viewBox="0 0 30 30" width="30" xmlns="http://www.w3.org/2000/svg"><rect fill="#65a2fd" height="30" rx="7" width="30"/><path clip-rule="evenodd" d="m21.846 12.003c.0265.0789.0446.1603.054.243v.054 9c0 1.4912-1.2088 2.7-2.7 2.7h-9c-1.49117 0-2.7-1.2088-2.7-2.7v-12.6c0-1.49117 1.20883-2.7 2.7-2.7h5.445c.1046.01291.2056.04657.297.099.0269-.00382.0541-.00382.081 0 .0925.04327.1776.10099.252.171l5.4 5.4c.07.0744.1277.1595.171.252zm-3.015-.603-2.331-2.33097v1.43097c0 .4971.4029.9.9.9zm1.2689 9.8999c0 .4971-.4029.9-.9.9h-9c-.49703 0-.89997-.4029-.89997-.9v-12.59997c0-.49706.40294-.9.89997-.9h4.5v2.69997c0 1.4912 1.2089 2.7 2.7 2.7h2.7zm-6.3-3.0689 2.961-2.97c.3529-.3529.9251-.3529 1.278 0s.3529.9251 0 1.278l-3.6 3.6c-.169.1704-.3991.2662-.639.2662-.24 0-.47-.0958-.639-.2662l-1.8-1.8c-.3529-.3529-.3529-.9251 0-1.278s.9251-.3529 1.278 0z" fill="#fff" fill-rule="evenodd"/></svg>

<svg width="30" height="30" viewBox="0 0 30 30" fill="none" xmlns="http://www.w3.org/2000/svg">
<rect width="30" height="30" rx="7" fill="#65A2FD"/>
<path fill-rule="evenodd" clip-rule="evenodd" d="M21.846 12.003C21.8725 12.0819 21.8906 12.1633 21.9 12.246V12.3V21.3C21.9 22.7912 20.6912 24 19.2 24H10.2C8.70883 24 7.5 22.7912 7.5 21.3V8.7C7.5 7.20883 8.70883 6 10.2 6H15.645C15.7496 6.01291 15.8506 6.04657 15.942 6.099C15.9689 6.09518 15.9961 6.09518 16.023 6.099C16.1155 6.14227 16.2006 6.19999 16.275 6.27L21.675 11.67C21.745 11.7444 21.8027 11.8295 21.846 11.922V12.003ZM18.831 11.4L16.5 9.06903V10.5C16.5 10.9971 16.9029 11.4 17.4 11.4H18.831ZM20.0999 21.2999C20.0999 21.797 19.697 22.1999 19.1999 22.1999H10.1999C9.70287 22.1999 9.29993 21.797 9.29993 21.2999V8.69993C9.29993 8.20287 9.70287 7.79993 10.1999 7.79993H14.6999V10.4999C14.6999 11.9911 15.9088 13.1999 17.3999 13.1999H20.0999V21.2999ZM13.7999 18.231L16.7609 15.261C17.1138 14.9081 17.686 14.9081 18.0389 15.261C18.3918 15.6139 18.3918 16.1861 18.0389 16.539L14.4389 20.139C14.2699 20.3094 14.0398 20.4052 13.7999 20.4052C13.5599 20.4052 13.3299 20.3094 13.1609 20.139L11.3609 18.339C11.008 17.9861 11.008 17.4139 11.3609 17.061C11.7138 16.7081 12.286 16.7081 12.6389 17.061L13.7999 18.231Z" fill="white"/>
</svg>
